icons/linear-ele-finance-money.svg

<svg xmlns="http://www.w3.org/2000/svg" width="32px" height="32px" viewBox="0 0 32 32" version="1.1">
    <title>linear-ele-finance-money</title>
    <g id="linear-ele-finance-money" stroke-width="1" fill-rule="evenodd">
        <path d="M25,4 C25.5522847,4 26,4.44771525 26,5 L26,10 L29,10 C29.5522847,10 30,10.4477153 30,11 L30,27 C30,27.5522847 29.5522847,28 29,28 L7,28 C6.44771525,28 6,27.5522847 6,27 L6,22 L3,22 C2.44771525,22 2,21.5522847 2,21 L2,5 C2,4.44771525 2.44771525,4 3,4 L25,4 Z M26,21 C26,21.5522847 25.5522847,22 25,22 L8,22 L8,26 L28,26 L28,12 L26,12 L26,21 Z M24,6 L4,6 L4,20 L24,20 L24,6 Z M14,8 C16.7614237,8 19,10.2385763 19,13 C19,15.7614237 16.7614237,18 14,18 C11.2385763,18 9,15.7614237 9,13 C9,10.2385763 11.2385763,8 14,8 Z M14,10 C12.3431458,10 11,11.3431458 11,13 C11,14.6568542 12.3431458,16 14,16 C15.6568542,16 17,14.6568542 17,13 C17,11.3431458 15.6568542,10 14,10 Z" id="&#24418;&#29366;" fill-rule="nonzero" />
    </g>
</svg>

<svg xmlns="http://www.w3.org/2000/svg" viewBox="0 0 32 32"><path fill="currentColor" d="M25 4a1 1 0 0 1 1 1v5h3a1 1 0 0 1 1 1v16a1 1 0 0 1-1 1H7a1 1 0 0 1-1-1v-5H3a1 1 0 0 1-1-1V5a1 1 0 0 1 1-1zm1 17a1 1 0 0 1-1 1H8v4h20V12h-2zM24 6H4v14h20zM14 8a5 5 0 1 1 0 10 5 5 0 0 1 0-10m0 2a3 3 0 1 0 0 6 3 3 0 0 0 0-6"/></svg>
